client/data/interface-icons/link.svg

<?xml version="1.0"?>
<svg xmlns="http://www.w3.org/2000/svg" xmlns:lc="http://www.librecad.org" xmlns:xlink="http://www.w3.org/1999/xlink" width="282.84271247mm" height="282.84271247mm" viewBox="-5 -5 292.84271247 292.84271247">
    <g lc:layername="0" lc:is_locked="false" lc:is_construction="false" fill="none" stroke="white" stroke-width="1">
        <circle cx="141.42135624" cy="141.42135624" r="141.42135624" stroke-width="5"/>
        <path fill="white" d="M131.42135624,171.42135624 L81.42135624,171.42135624 A30,30 0 1,1 81.42135624,111.42135624 L131.42135624,111.42135624 L131.42135624,91.42135624 L81.42135624,91.42135624 A50,50 0 0,0 81.42135624,191.42135624 L131.42135624,191.42135624 L131.42135624,171.42135624 Z "/>
        <path fill="white" d="M191.42135624,131.42135624 L191.42135624,151.42135624 L91.42135624,151.42135624 L91.42135624,131.42135624 L191.42135624,131.42135624 Z "/>
        <path fill="white" d="M201.42135624,191.42135624 L151.42135624,191.42135624 L151.42135624,171.42135624 L201.42135624,171.42135624 A30,30 0 0,0 201.42135624,111.42135624 L151.42135624,111.42135624 L151.42135624,91.42135624 L201.42135624,91.42135624 A50,50 0 1,1 201.42135624,191.42135624 Z "/>
    </g>
</svg>

<?xml version="1.0" encoding="UTF-8" standalone="no"?>
<svg
   xmlns:dc="http://purl.org/dc/elements/1.1/"
   xmlns:cc="http://creativecommons.org/ns#"
   xmlns:rdf="http://www.w3.org/1999/02/22-rdf-syntax-ns#"
   xmlns:svg="http://www.w3.org/2000/svg"
   xmlns="http://www.w3.org/2000/svg"
   xmlns:sodipodi="http://sodipodi.sourceforge.net/DTD/sodipodi-0.dtd"
   xmlns:inkscape="http://www.inkscape.org/namespaces/inkscape"
   width="282.84271247mm"
   height="282.84271247mm"
   viewBox="-5 -5 292.84271247 292.84271247"
   version="1.1"
   id="svg12"
   sodipodi:docname="link.svg"
   inkscape:version="0.92.2 (5c3e80d, 2017-08-06)">
  <metadata
     id="metadata18">
    <rdf:RDF>
      <cc:Work
         rdf:about="">
        <dc:format>image/svg+xml</dc:format>
        <dc:type
           rdf:resource="http://purl.org/dc/dcmitype/StillImage" />
      </cc:Work>
    </rdf:RDF>
  </metadata>
  <defs
     id="defs16" />
  <sodipodi:namedview
     pagecolor="#ffffff"
     bordercolor="#666666"
     borderopacity="1"
     objecttolerance="10"
     gridtolerance="10"
     guidetolerance="10"
     inkscape:pageopacity="0"
     inkscape:pageshadow="2"
     inkscape:window-width="1920"
     inkscape:window-height="1017"
     id="namedview14"
     showgrid="false"
     inkscape:zoom="0.44152926"
     inkscape:cx="168.08811"
     inkscape:cy="412.27296"
     inkscape:window-x="-8"
     inkscape:window-y="-8"
     inkscape:window-maximized="1"
     inkscape:current-layer="svg12" />
  <circle
     style="fill:none;stroke:#ffffff;stroke-width:5"
     id="circle2"
     r="141.42136"
     cy="141.42136"
     cx="141.42136" />
  <path
     style="fill:#4d4d4d;stroke:#4d4d4d;stroke-width:1;stroke-opacity:1"
     inkscape:connector-curvature="0"
     id="path4"
     d="M 131.42136,171.42136 H 81.421356 a 30,30 0 1 1 0,-60 H 131.42136 V 91.421356 H 81.421356 a 50.000002,50.000002 0 0 0 0,100.000004 h 50.000004 z" />
  <path
     style="fill:#b3b3b3;stroke:#b3b3b3;stroke-width:1;stroke-opacity:1"
     inkscape:connector-curvature="0"
     id="path6"
     d="m 191.42136,131.42136 v 20 H 91.421356 v -20 z" />
  <path
     style="fill:#4d4d4d;stroke:#4d4d4d;stroke-width:1;stroke-opacity:1"
     inkscape:connector-curvature="0"
     id="path8"
     d="m 201.42136,191.42136 h -50 v -20 h 50 a 30,30 0 0 0 0,-60 h -50 V 91.421356 h 50 a 50.000002,50.000002 0 1 1 0,100.000004 z" />
</svg>
